public/icons/binance.svg

<svg width="54" height="54" viewBox="0 0 54 54" fill="none" xmlns="http://www.w3.org/2000/svg">
<path d="M27 54C41.9117 54 54 41.9117 54 27C54 12.0883 41.9117 0 27 0C12.0883 0 0 12.0883 0 27C0 41.9117 12.0883 54 27 54Z" fill="#F3BA2F"/>
<path d="M37.2454 20.5038C37.0733 20.7106 36.9369 20.9022 36.7734 21.0667C35.8717 21.976 34.9364 22.855 34.0671 23.7957C33.619 24.2807 33.3516 24.2071 32.9262 23.7708C31.1649 21.9663 29.3495 20.2126 27.5959 18.3994C27.0903 17.8766 26.797 17.8614 26.2817 18.3951C24.5594 20.1823 22.7646 21.8992 21.0391 23.6832C20.5455 24.1941 20.2467 24.2991 19.7249 23.7124C18.9022 22.7858 18.0059 21.9208 17.0977 21.0765C16.629 20.6402 16.6679 20.3598 17.1074 19.9247C20.2077 16.8536 23.2875 13.7609 26.3672 10.6703C26.7082 10.3282 26.9572 10.1063 27.4248 10.5794C30.5468 13.7414 33.6991 16.8742 36.8394 20.0189C36.978 20.1574 37.0927 20.3198 37.2454 20.5038Z" fill="#FEFDFB"/>
<path d="M37.2463 33.5237C37.0515 33.7532 36.888 33.9751 36.6953 34.1689C33.6415 37.2302 30.5737 40.2775 27.5394 43.3583C27.0382 43.8671 26.7568 43.7772 26.3054 43.3193C23.2646 40.245 20.2054 37.1891 17.1365 34.1429C16.7338 33.7434 16.5563 33.4631 17.0661 32.9911C18.035 32.0948 18.9724 31.1595 19.872 30.1939C20.3093 29.7241 20.5572 29.8854 20.922 30.2556C22.6346 31.9963 24.4131 33.6752 26.077 35.4614C26.7882 36.2246 27.1725 36.1196 27.8295 35.4235C29.4782 33.6774 31.2297 32.0287 32.8968 30.3C33.3807 29.7988 33.6664 29.8107 34.1254 30.3086C34.9655 31.2212 35.8726 32.071 36.7473 32.9521C36.9129 33.1199 37.059 33.3083 37.2463 33.5237Z" fill="#FEFDFB"/>
<path d="M30.6659 26.9111C30.6778 27.251 30.4537 27.3842 30.2935 27.5465C29.3679 28.4851 28.4121 29.3944 27.5093 30.3546C27.0763 30.8157 26.7818 30.7952 26.3586 30.3459C25.4536 29.3879 24.5194 28.4559 23.5635 27.5487C23.1424 27.1493 23.1619 26.8765 23.5711 26.4857C24.554 25.5482 25.5131 24.587 26.4538 23.6073C26.8186 23.2273 27.0708 23.2457 27.427 23.6149C28.3688 24.5924 29.343 25.5396 30.3021 26.5019C30.4418 26.6426 30.5652 26.7974 30.6659 26.9111Z" fill="#FEFDFB"/>
<path d="M13.8761 30.773C13.6791 30.6095 13.4886 30.4753 13.3251 30.314C12.3898 29.3873 11.4794 28.4347 10.5225 27.5319C10.083 27.1173 10.1707 26.8478 10.5582 26.4765C11.4805 25.5942 12.3877 24.6947 13.2667 23.7691C13.6715 23.3426 13.9573 23.2387 14.412 23.7301C15.3061 24.6947 16.2544 25.6115 17.1994 26.5274C17.5339 26.8521 17.6671 27.0816 17.2503 27.4745C16.2631 28.4044 15.3245 29.3852 14.3643 30.3421C14.2258 30.4796 14.071 30.6008 13.8761 30.773Z" fill="#FEFDFB"/>
<path d="M43.7572 27.018C43.6208 27.1879 43.5104 27.3525 43.3729 27.491C42.4181 28.4545 41.4449 29.4006 40.5042 30.377C40.147 30.7472 39.897 30.757 39.5343 30.3781C38.5958 29.3984 37.6356 28.4393 36.6559 27.5018C36.2889 27.1511 36.2575 26.9227 36.644 26.5557C37.6269 25.6215 38.5828 24.6581 39.5235 23.6806C39.8721 23.319 40.1199 23.2671 40.4923 23.6568C41.4298 24.6364 42.4051 25.5804 43.3621 26.5427C43.5006 26.6802 43.6143 26.8437 43.7572 27.018Z" fill="#FEFDFB"/>
</svg>

<svg width="54" height="54" fill="none" xmlns="http://www.w3.org/2000/svg"><path d="M27 54c14.912 0 27-12.088 27-27S41.912 0 27 0 0 12.088 0 27s12.088 27 27 27Z" fill="#F3BA2F"/><path d="M37.245 20.504c-.172.207-.308.398-.472.563-.901.909-1.837 1.788-2.706 2.729-.448.485-.715.411-1.14-.025-1.762-1.805-3.578-3.558-5.331-5.372-.506-.522-.799-.538-1.314-.004-1.723 1.787-3.517 3.504-5.243 5.288-.494.511-.792.616-1.314.03-.823-.927-1.72-1.792-2.627-2.637-.469-.436-.43-.716.01-1.151 3.1-3.071 6.18-6.164 9.26-9.255.34-.342.59-.564 1.057-.09 3.122 3.161 6.274 6.294 9.414 9.439.139.138.254.3.406.485ZM37.246 33.524c-.195.23-.358.451-.55.645-3.054 3.061-6.122 6.109-9.157 9.19-.5.508-.782.418-1.234-.04-3.04-3.074-6.1-6.13-9.168-9.176-.403-.4-.58-.68-.07-1.152a53.408 53.408 0 0 0 2.805-2.797c.437-.47.685-.309 1.05.062 1.713 1.74 3.491 3.42 5.155 5.205.711.764 1.095.659 1.752-.038 1.65-1.746 3.4-3.394 5.068-5.123.484-.501.77-.49 1.228.009.84.912 1.748 1.762 2.622 2.643.166.168.312.356.5.572Z" fill="#FEFDFB"/><path d="M30.666 26.911c.012.34-.212.473-.372.636-.926.938-1.882 1.847-2.785 2.808-.433.46-.727.44-1.15-.01a72.494 72.494 0 0 0-2.796-2.796c-.42-.4-.401-.672.008-1.063a92.701 92.701 0 0 0 2.883-2.879c.365-.38.617-.361.973.008.942.977 1.916 1.925 2.875 2.887.14.14.263.295.364.41ZM13.876 30.773c-.197-.163-.387-.298-.55-.459-.936-.927-1.847-1.88-2.803-2.782-.44-.415-.352-.684.035-1.055a79.845 79.845 0 0 0 2.709-2.708c.405-.426.69-.53 1.145-.039.894.965 1.842 1.881 2.787 2.797.335.325.468.555.051.947-.987.93-1.925 1.911-2.886 2.868-.138.138-.293.259-.488.431ZM43.757 27.018c-.136.17-.247.334-.384.473-.955.963-1.928 1.91-2.869 2.886-.357.37-.607.38-.97.001a93.604 93.604 0 0 0-2.878-2.876c-.367-.35-.398-.58-.012-.946a91.302 91.302 0 0 0 2.88-2.875c.348-.362.596-.414.968-.024.938.98 1.913 1.923 2.87 2.886.139.137.252.3.395.475Z" fill="#FEFDFB"/></svg>
